X:25
T:Priest
Z: id:dc-slide-26
M:6/8
L:1/8
K:G Major
g|edB d2B|d2B d2g|edB d2B|c2A A2g|!
edB d2B|BAB g3|BAB gfg|B2G G2:|!
f|gag fgf|g2e e2d|eaa aga|b2e e2f|!
gag fgf|g2e e2d|BAB gfg|B2G G2:|!

